X: 1460
T: Andersom, The
R: jig
M: 6/8
K: Dmajor
|:DdD ADd|GAB AFD|dDA DdF|EFG ABc|
dDd AdF|GAB Ade|fed BdB|1 AdB AFE:|2 AFE DFA||
|:dBg B fB|eAf AeA|dcB A(3Bcd|eAa fed|
cBg BfB|eAf AeA|dcB A(3Bcd|1 ecA ABc:|2 ecA GFE||

